X: 8749
T: Cuas, The
R: polka
M: 2/4
K: Gmajor
|:DD/D/ GD|ED/E/ AE|DD/D/ GB|c/B/A/G/ EF/E/|
DD/D/ GD|ED/E/ AE|G/A/B G/A/B|1 A2 AE:|2 A2 AB||
|:d>B GB|ed gB|d>B GB|cB AB/c/|
d>B GB|ed gB|dB G/A/B|1 A2 AB:|2 A2 AE||

